X:1
T:J. Barnby
T:Barnby
%%score { ( 1 2 ) | ( 3 4 5 ) }
L:1/8
M:4/4
K:C
V:1 treble 
V:2 treble 
V:3 bass 
V:4 bass 
V:5 bass 
V:1
 E4 E2 E2 | F4 F4 | F2 A2 G2 F2 | E4 c4 | B4 ^F4 | G6 G2 | G4 G4 | A6 A2 | A2 c2 B2 A2 | G4 e4 | %10
 d4 A4 | B8 | c4 c2 c2 | B4 B4 | _B3 B B2 B2 | A6 A2 | (A4 c2) A2 | G2 G2 G2 C2 | E4 D4 | C8 |] %20
V:2
 C4 C2 C2 | D4 D4 | D2 F2 E2 D2 | C4 E4 | E4 ^D4 | E6 E2 | E4 E4 | ^F6 F2 | ^F2 ^D2 E2 F2 | G4 G4 | %10
 G4 ^F4 | G8 | G4 G2 G2 | G4 G4 | F3 F F2 F2 | F6 E2 | D6 D2 | D2 B,2 C2 C2 | C4 B,4 | C8 |] %20
V:3
 C,4 C,2 C,2 | C,4 C,4 | B,,2 G,,2 A,,2 B,,2 | C,4 A,,4 | B,,4 B,,4 | E,6 E,2 | E,4 E,4 | E,6 E,2 | %8
 ^D,2 B,,2 ^C,2 D,2 | E,4 ^C,4 | D,4 D,4 | G,8 | C4 C2 C2 | G,4 G,4 | _B,3 B, B,2 B,2 | x8 | x8 | %17
 x8 | x8 | x8 |] %20
V:4
 G,4 G,2 G,2 | A,4 A,4 | G,2 B,2 C2 D2 | G,4 A,4 | ^F,4 B,4 | B,6 B,2 | B,4 B,4 | C6 C2 | %8
 B,2 A,2 G,2 ^F,2 | B,4 ^C4 | A,4 D4 | D8 | E4 E2 E2 | D4 D4 | D3 D D2 D2 | C6 C2 | C6 C2 | %17
 B,2 G,2 G,2 F,2 | G,4 F,4 | E,8 |] %20
V:5
 x8 | x8 | x8 | x8 | x8 | x8 | x8 | x8 | x8 | x8 | x8 | x8 | x8 | x8 | x8 | F,6 F,2 | ^F,6 D,2 | %17
 G,2 F,2 E,2 A,,2 | G,,4 G,,4 | C,8 |] %20

